X:1
T:Miss Crawford's Strathspey
B:Kerr
M:4/4
L:1/8
R:Highland
S:Tommy Peoples - Workshop 7/19/01
Z:AK/Fiddler's Companion irtrad-l 2001-7-24
K:A
|: A2 {c/d/} c>A e>ce>a \
| A>B {c/d/}c>A B<E G>B \
| A2 {c/d/}c>A e>ce>a \
| (3gfe (3dcB (3AcB (3AFE |
| A2 {c/d/}c>A e>ce>a \
| A>B {c/d/}c>A B<E G>B \
| A2 {c/d/}c>A e>ce>=g \
| f>ag>b a3 ||
 A \
| a>Ac'>A d'>Ac'>A \
| a>Ac'>A {b/c'/}b>a b<c' \
| a>Ac'>A d'>Ac'>A \
| (3ded (3cdc ~B2 A2 |
| a>Ac'>A d'>Ac'>A \
| a>Ac'>A {b/c'/}b>a b<c' \
| (3Ace (3ecA (3Adf (3fdA \
| g>eb>g a>f e/c/B \
:| A4 |]
